X:91
T:The Star Hornpipe
N:Allan's  #91   pp23
N:Trad/Anon
N:CONVERTED FROM NOTEWORTHY COMPOSER  (WWW.NOTEWORTHYSOFTWARE.COM) BY
N:ABC2NWC (HTTP://MEMBERS.AOL.COM/ABACUSMUSIC/), WITH
Z: (INTO NWC) VINCE BRENNAN 2002   (WWW.SOSYOURMOM.COM)
I:abc2nwc
M:4/4
L:1/8
K:G
(e3/2f/2)|g3/2d/2B3/2G/2 F3/2G/2D3/2C/2| ((3B,B,B,) D3/2G/2 B3/2d/2g3/2d/2|^c3/2d/2c3/2d/2 A3/2d/2G3/2A/2|F3/2G/2E3/2F/2 D3/2d/2e3/2f/2|
g3/2d/2B3/2G/2 F3/2G/2D3/2C/2| ((3B,B,B,) D3/2G/2 B3/2d/2g3/2d/2|e3/2c/2B3/2E/2 C3/2g/2f3/2e/2| ((3ded)  ((3cBA) G2:|
|:^f2|e3/2d/2e3/2B/2 c3/2B/2c3/2e/2|d3/2^c/2d3/2=c/2 B3/2G/2B3/2d/2|c3/2B/2c3/2B/2 A3/2B/2A3/2G/2|^F3/2A/2d3/2^c/2 d3/2^d/2e3/2f/2|
g3/2d/2B3/2G/2 F3/2G/2D3/2C/2| ((3B,B,B,) D3/2G/2 B3/2d/2g3/2d/2|e3/2c/2G3/2E/2 C3/2g/2f3/2e/2| ((3ded)  ((3cBA) G2:|
|: ((3DEF)|G2B2B3/2d/2^c3/2d/2|F2A2A3/2d/2^c3/2d/2|G2e3/2f/2 g2f3/2e/2| ((3ded)  ((3cBA)G3/2D/2E3/2F/2|
G2B2B3/2d/2^c3/2d/2|F2A2A3/2d/2^c3/2d/2|G2e3/2f/2 g2f3/2e/2| ((3ded)  ((3cBA) G2:|
